icons/line/pencil.svg

<svg width="24" height="24" viewBox="0 0 24 24" fill="none" xmlns="http://www.w3.org/2000/svg">
<path d="M14 6L16.2929 3.70711C16.6834 3.31658 17.3166 3.31658 17.7071 3.70711L20.2929 6.29289C20.6834 6.68342 20.6834 7.31658 20.2929 7.70711L18 10M14 6L4.29289 15.7071C4.10536 15.8946 4 16.149 4 16.4142V19C4 19.5523 4.44772 20 5 20H7.58579C7.851 20 8.10536 19.8946 8.29289 19.7071L18 10M14 6L18 10" stroke="currentColor" stroke-width="2" stroke-linecap="round" stroke-linejoin="round"/>
</svg>

<svg width="24" height="24" fill="none" xmlns="http://www.w3.org/2000/svg"><path d="M14 6l2.293-2.293a1 1 0 011.414 0l2.586 2.586a1 1 0 010 1.414L18 10m-4-4l-9.707 9.707a1 1 0 00-.293.707V19a1 1 0 001 1h2.586a1 1 0 00.707-.293L18 10m-4-4l4 4" stroke="currentColor" stroke-width="2" stroke-linecap="round" stroke-linejoin="round"/></svg>
